X: 31973
T: Pedaling Patterns
R: barndance
M: 4/4
K: Edorian
|:c|BE~E2 FAdc|BEGB ~e3f|gfge fdcd|Bcdf efdc|
B2AG FGA=c|BEGB ~e3f|gbag fdcd|1 BcdB efd:|2 BcdB ~e3||
|:f|gB~B2 GBbg|af~f2 dAFA|EB~B2 GBef|gbaf geef|
geBe gece|fdcd AGFD|EFGA B2ef|gbaf gee:|

